images_breeze_svg/cmd/32/dbsortingandgrouping.svg

<svg viewBox="0 0 32 32" xmlns="http://www.w3.org/2000/svg"><path d="m8.5 7a1.5 1.5 0 0 0 -1.5 1.5 1.5 1.5 0 0 0 1.5 1.5 1.5 1.5 0 0 0 1.5-1.5 1.5 1.5 0 0 0 -1.5-1.5zm0 7a1.5 1.5 0 0 0 -1.5 1.5 1.5 1.5 0 0 0 1.5 1.5 1.5 1.5 0 0 0 1.5-1.5 1.5 1.5 0 0 0 -1.5-1.5z" fill="#27ae60"/><path d="m8.5 21a1.5 1.5 0 0 0 -1.5 1.5 1.5 1.5 0 0 0 1.5 1.5 1.5 1.5 0 0 0 1.5-1.5 1.5 1.5 0 0 0 -1.5-1.5z" fill="#da4453"/><path d="m4 4v24h24v-24zm1 1h22v22h-22zm7 2v1h13v-1zm9 2v14.085938l-3.792969-3.792969-.707031.707031 4 4 1 1 1-1 4-4-.707031-.707031-3.792969 3.792969v-14.085938zm-9 1v1h7v-1zm0 4v1h7v-1zm0 3v1h5v-1zm0 4v1h4v-1zm0 3v1h6v-1z" fill="#4d4d4d"/></svg>

<?xml version="1.0" encoding="UTF-8" standalone="no"?>
<svg
   xmlns:dc="http://purl.org/dc/elements/1.1/"
   xmlns:cc="http://creativecommons.org/ns#"
   xmlns:rdf="http://www.w3.org/1999/02/22-rdf-syntax-ns#"
   xmlns:svg="http://www.w3.org/2000/svg"
   xmlns="http://www.w3.org/2000/svg"
   xmlns:sodipodi="http://sodipodi.sourceforge.net/DTD/sodipodi-0.dtd"
   xmlns:inkscape="http://www.inkscape.org/namespaces/inkscape"
   viewBox="0 0 32 32"
   version="1.1"
   id="svg8"
   sodipodi:docname="dbsortingandgrouping.svg"
   inkscape:version="0.92.4 (unknown)"
   inkscape:export-filename="/home/rizmut/Dokumen/Rizmut/Github/tmp/breeze/cmd/32/dbsortingandgrouping.png"
   inkscape:export-xdpi="96"
   inkscape:export-ydpi="96">
  <metadata
     id="metadata14">
    <rdf:RDF>
      <cc:Work
         rdf:about="">
        <dc:format>image/svg+xml</dc:format>
        <dc:type
           rdf:resource="http://purl.org/dc/dcmitype/StillImage" />
      </cc:Work>
    </rdf:RDF>
  </metadata>
  <defs
     id="defs12" />
  <sodipodi:namedview
     pagecolor="#ffffff"
     bordercolor="#666666"
     borderopacity="1"
     objecttolerance="10"
     gridtolerance="10"
     guidetolerance="10"
     inkscape:pageopacity="0"
     inkscape:pageshadow="2"
     inkscape:window-width="1360"
     inkscape:window-height="714"
     id="namedview10"
     showgrid="true"
     inkscape:zoom="10.429825"
     inkscape:cx="6.011938"
     inkscape:cy="7.6473648"
     inkscape:window-x="0"
     inkscape:window-y="28"
     inkscape:window-maximized="1"
     inkscape:current-layer="svg8">
    <inkscape:grid
       type="xygrid"
       id="grid821" />
  </sodipodi:namedview>
  <path
     d="m8.5 7a1.5 1.5 0 0 0 -1.5 1.5 1.5 1.5 0 0 0 1.5 1.5 1.5 1.5 0 0 0 1.5-1.5 1.5 1.5 0 0 0 -1.5-1.5zm0 7a1.5 1.5 0 0 0 -1.5 1.5 1.5 1.5 0 0 0 1.5 1.5 1.5 1.5 0 0 0 1.5-1.5 1.5 1.5 0 0 0 -1.5-1.5z"
     fill="#27ae60"
     id="path2" />
  <path
     d="m8.5 21a1.5 1.5 0 0 0 -1.5 1.5 1.5 1.5 0 0 0 1.5 1.5 1.5 1.5 0 0 0 1.5-1.5 1.5 1.5 0 0 0 -1.5-1.5z"
     fill="#da4453"
     id="path4" />
  <path
     d="M 4,4 V 28 H 28 V 4 Z M 5,5 H 27 V 27 H 5 Z m 7,2 V 8 H 25 V 7 Z m 9,2 V 23.085938 L 17.207031,19.292969 16.5,20 l 4,4 1,1 1,-1 4,-4 L 25.792969,19.292969 22,23.085938 V 9 Z m -9,1 v 1 h 7 v -1 z m 0,4 v 1 h 7 v -1 z m 0,3 v 1 h 5 v -1 z m 0,4 v 1 h 4 v -1 z m 0,3 v 1 h 6 v -1 z"
     id="path6"
     inkscape:connector-curvature="0"
     style="fill:#4d4d4d"
     sodipodi:nodetypes="cccccccccccccccccccccccccccccccccccccccccccccccccccc" />
</svg>
